X:553
T: DES ABENDS WENN ICH SCHLAFEN GEH
N: E0527C
O: Europa, Mitteleuropa, Deutschland, Lahnkreis; Dillkreis; Westerwald
R: Liebes - Lied
M: 2/4
L: 1/16
K: G
D2 | G2D2D2G2 | E2E2E2
c2 | d2d2c2F2 | G4z2
GA | B2B2B2d2 | c2A2A2
AB | c2c2c2e2 | d2B2B2
G2 | E3FGFGE | D4G2
B2 | d2c2A2F2 | G4z2

@@@ Tune index: 4203
